fs/arrow_circle_down_up_20_filled.svg

<svg viewBox="0 0 20 20" fill="none" xmlns="http://www.w3.org/2000/svg" height="1em" width="1em">
  <path d="M10 18C14.4183 18 18 14.4183 18 10C18 5.58172 14.4183 2 10 2C5.58172 2 2 5.58172 2 10C2 14.4183 5.58172 18 10 18ZM9 12.2071L7.35355 13.8536C7.15829 14.0488 6.84171 14.0488 6.64645 13.8536L5 12.2071C4.80474 12.0118 4.80474 11.6953 5 11.5C5.19526 11.3047 5.51185 11.3047 5.70711 11.5L6.5 12.2929L6.5 6.5C6.5 6.22386 6.72386 6 7 6C7.27614 6 7.5 6.22386 7.5 6.5L7.5 12.2929L8.29289 11.5C8.48815 11.3047 8.80474 11.3047 9 11.5C9.19526 11.6953 9.19526 12.0118 9 12.2071ZM15 7.79289C15.1952 7.98815 15.1952 8.30474 15 8.5C14.8047 8.69526 14.4881 8.69526 14.2929 8.5L13.5 7.70711L13.5 13.5C13.5 13.7761 13.2761 14 13 14C12.7238 14 12.5 13.7761 12.5 13.5L12.5 7.70711L11.7071 8.5C11.5118 8.69526 11.1952 8.69526 11 8.5C10.8047 8.30474 10.8047 7.98816 11 7.79289L12.6464 6.14645C12.8417 5.95118 13.1583 5.95118 13.3535 6.14645L15 7.79289Z" fill="#212121"/>
</svg>

<svg viewBox="0 0 20 20" fill="none" xmlns="http://www.w3.org/2000/svg" height="1em" width="1em">
  <path d="M10 18a8 8 0 1 0 0-16 8 8 0 0 0 0 16Zm-1-5.793-1.646 1.647a.5.5 0 0 1-.708 0L5 12.207a.5.5 0 1 1 .707-.707l.793.793V6.5a.5.5 0 0 1 1 0v5.793l.793-.793a.5.5 0 1 1 .707.707Zm6-4.414a.5.5 0 0 1-.707.707l-.793-.793V13.5a.5.5 0 0 1-1 0V7.707l-.793.793A.5.5 0 1 1 11 7.793l1.646-1.647a.5.5 0 0 1 .707 0L15 7.793Z" fill="#212121"/>
</svg>
